X:8
T:No.28 The Glen Road To Carric
C:reel
M:4/4
L:1/8
K:D
FDDD FDGE|FDFG AdAG|FDDD DEFD|
|[1EdcA GcAG:|[2EdcA G4||Addc AcAG|
FAdc A2FG|Addc AGFD|EdcA G3E|
Dddc AcAG|FAdc A2(3ABc|defd AGFD|
EdcA Ggeg|:fd (3ddd fdeg|fdfg abag|
fd (3ddd fdef|g2bg efge:|fded dBAG|
FdDF A2Bc|defd AGFD|[1EdcA Ggeg:|
|[2EdcA GABc||dD (3DDD AD (3DDD|dD (3DDD A2(3ABc|
dD (3DDD AD (3DDD|GE=CE GABc|dD (3DDD dDcD|
dD (3DDD A2 (3ABc|defd AGFD|EdcA GcAG||
